X:1
T:Follow On
T:Robert Lowry
T:Follow On
T:Public Domain
T:Public Domain
C:Robert Lowry
Z:Public Domain
%%score ( 1 2 ) ( 3 4 )
L:1/8
M:4/4
K:Ab
V:1 treble 
V:2 treble 
V:3 bass 
V:4 bass 
V:1
 [CE]2 [CA]>[DB] [Ec][Ec][EB][EA] | [DA][FA][EG][DF] [CE]4 | [B,E][EG][EG][EG] [EG][EB][EB][EG] | %3
w: 1.~Down in the val- ley with my|Sav- ior I would go,|Where the flowers are bloom- ing and the|
w: 2.~Down in the val- ley with my|Sav- ior I would go,|Where the storms are sweep- ing and the|
w: 3.~Down in the val- ley, or up-|on the mount- ain steep,|Close be- side my Sav- ior would my|
 [EA]2 [Ed][Ec] (E2 D2) | [CE][CE][CA][DB] [Ec][Ec][EB][EA] | [FA][FA][EG][DF] [CE]4 | %6
w: sweet wa- ters flow; *|ery- where He leads me I would fol-|low, fol- low on, Walk-|
w: dark wa- ters flow; *|His hand to lead me I will ne-|ver, ne- ver fear, Dan-|
w: soul ev- er keep; *|will lead me safe- ly in the path|that He has trod, Up|
 [DF][EG][EA][EB] [Ec][Ec][Ee][Fd] | [Ec]2 [EB]2 [EA]4 ||"^Refrain" [Ac]2 [Ae]2 ([Ec]>[DB]) [CA]2 | %9
w: ing in His foot- steps till the crown|be won. *||
w: ger can- not fright me if my Lord|is near. *||
w: to where they ga- ther on the hills|of God. *||
 [DA]>[DB] [DA][DF] [DF]2 [CE]2 | [EG][EG] [EG]2 [EA][EA] [EA]2 | [GB][Ac][Bd][Ac] [GB]4 | %12
w: |||
w: |||
w: |||
 [Ac]2 [Ae]2 ([Ec]>[DB]) [CA]2 | [DA]>[DB] [DA][DF] [DF]2 [CE]2 | %14
w: ||
w: ||
w: ||
 [DF][EG][EA][EB] [Ec][Ec][Ee][Fd] | [Ec]2 [EB]2 [EA]4 |] %16
w: ||
w: ||
w: ||
V:2
 x8 | x8 | x8 | x4 B4 | x8 | x8 | x8 | x8 || x8 | x8 | x8 | x8 | x8 | x8 | x8 | x8 |] %16
w: |||Ev-|||||||||||||
w: |||With|||||||||||||
w: |||He|||||||||||||
V:3
 [A,,A,]2 [A,,A,]>[A,,A,] [A,,A,][A,,A,][C,A,][C,A,] | [D,F,][D,A,][D,A,][D,A,] [A,,A,]4 | %2
w: ~ ~ ~ ~ ~ ~ ~|~ ~ ~ ~ ~|
 [E,G,][E,B,][E,B,][E,B,] [E,B,][E,G,][E,G,][D,B,] | [C,A,]2 [B,,G,][A,,A,] [E,G,]4 | %4
w: ~ ~ ~ ~ ~ ~ ~ ~|~ ~ ~ ~|
 A,A,A,A, [A,,A,][A,,A,][C,A,][C,A,] | [D,A,][D,A,][D,A,][D,A,] [A,,A,]4 | %6
w: ~ ~ ~ ~ ~ ~ ~ ~|~ ~ ~ ~ ~|
 [D,A,][D,B,][C,A,][E,G,] A,A,[C,A,][D,A,] | [E,A,]2 [E,D]2 [A,,C]4 || %8
w: ~ ~ ~ ~ ~ ~ ~ Fol-|low! I would|
 [A,E]2 [A,C]2 [A,,A,]2 [A,,A,]2 | [D,F,]>[D,F,] [D,F,][D,A,] [A,,A,]2 [A,,A,]2 | %10
w: fol- low Je- sus!|A- ny- where, ev- ery- where,|
 [E,B,][E,B,] [E,B,]2 [E,C][E,C] [E,C]2 | [E,E][E,E][E,E][E,E] [E,E]4 | %12
w: I would fol- low on! Fol-|low! fol- low! I would|
 [A,E]2 [A,C]2 [A,,A,]2 [A,,A,]2 | [D,F,]>[D,F,] [D,F,][D,A,] [A,,A,]2 [A,,A,]2 | %14
w: fol- low Je- sus!|Ev- ery- where He leads me|
 [D,A,][D,B,][C,A,][E,G,] A,A,[C,A,][D,A,] | [E,A,]2 [E,D]2 [A,,C]4 |] %16
w: I would fol- low on! * * *||
V:4
 x8 | x8 | x8 | x8 | A,A,A,A, x4 | x8 | x4 A,A, x2 | x8 || x8 | x8 | x8 | x8 | x8 | x8 | %14
w: ||||~ ~ ~ ~||low! fol-||||||||
 x4 A,A, x2 | x8 |] %16
w: ||

